icon/lg/intercom-icon.svg

<?xml version="1.0" encoding="UTF-8"?>
<svg viewBox="0 0 256 263" version="1.1" xmlns="http://www.w3.org/2000/svg" xmlns:xlink="http://www.w3.org/1999/xlink" preserveAspectRatio="xMidYMid" height="1em" width="1em">
  <g>
    <path d="M221.6601,144.561222 C221.6601,146.902786 220.763055,149.148726 219.166518,150.804808 C217.569631,152.460541 215.403904,153.390862 213.145705,153.390862 C210.887505,153.390862 208.721778,152.460541 207.124891,150.804808 C205.528004,149.148726 204.630959,146.902786 204.630959,144.561222 L204.630959,65.6773179 C204.630959,63.3354039 205.528004,61.0894641 207.124891,59.4337316 C208.721778,57.7776488 210.887505,56.8473281 213.145705,56.8473281 C215.403904,56.8473281 217.569631,57.7776488 219.166518,59.4337316 C220.763055,61.0894641 221.6601,63.3354039 221.6601,65.6773179 L221.6601,144.561222 Z M218.704861,199.21791 C217.578739,200.385714 185.91316,227.750661 127.859191,227.750661 C69.8052218,227.750661 38.3508569,200.531427 37.0138713,199.363973 C36.1711185,198.627352 35.477231,197.725404 34.9714392,196.709967 C34.4656474,195.69418 34.1584595,194.585221 34.0666884,193.446489 C33.9752676,192.307407 34.1013652,191.160969 34.437976,190.072676 C34.7745867,188.984383 35.3150554,187.975601 36.0285581,187.104477 C37.4982965,185.341211 39.5803093,184.251867 41.8213452,184.074279 C44.0623811,183.896341 46.2802992,184.644871 47.9910243,186.155942 C48.483856,186.520574 76.7717681,210.309952 127.788786,210.309952 C178.805805,210.309952 207.30493,186.374861 207.586548,186.155942 C209.316539,184.658532 211.541812,183.91981 213.788803,184.097047 C216.035793,184.273934 218.127614,185.35312 219.619419,187.104477 C221.055181,188.841472 221.771837,191.095818 221.613514,193.377836 C221.455542,195.659854 220.435551,197.784599 218.775265,199.291116 L218.704861,199.21791 Z M33.9878773,65.6773179 C34.1150258,63.3280482 35.1339651,61.1265929 36.8219226,59.5538747 C38.5095298,57.9815067 40.7291992,57.1657248 42.9951044,57.2851673 C45.0956815,57.4088131 47.077867,58.3349305 48.5591644,59.8845308 C50.0404618,61.4341311 50.9161401,63.4975795 51.0170183,65.6773179 L51.0170183,144.415159 C51.0170183,146.757073 50.1199734,149.003013 48.5230864,150.658745 C46.9265497,152.314828 44.7608222,153.244799 42.5026229,153.244799 C40.2444237,153.244799 38.0786961,152.314828 36.4818092,150.658745 C34.8849222,149.003013 33.9878773,146.757073 33.9878773,144.415159 L33.9878773,65.6773179 Z M76.7013636,48.1637518 C76.8288624,45.814482 77.8474514,43.6130267 79.5354089,42.0403085 C81.2230161,40.4679405 83.4426855,39.6521586 85.7085907,39.7716011 C87.8091678,39.8952469 89.7913532,40.8213643 91.2726507,42.3709646 C92.7539481,43.9205649 93.6296264,45.9840133 93.7305045,48.1637518 L93.7305045,164.920743 C93.7305045,167.262307 92.8334597,169.508246 91.236923,171.164329 C89.640036,172.820062 87.4743084,173.750382 85.2161092,173.750382 C82.95791,173.750382 80.7921824,172.820062 79.1952954,171.164329 C77.5984085,169.508246 76.7013636,167.262307 76.7013636,164.920743 L76.7013636,48.1637518 Z M119.626063,43.7853602 C119.626063,41.4434461 120.523108,39.1975064 122.119995,37.5417739 C123.716882,35.8856911 125.88261,34.9553704 128.140809,34.9553704 C130.399008,34.9553704 132.564736,35.8856911 134.161273,37.5417739 C135.75816,39.1975064 136.655204,41.4434461 136.655204,43.7853602 L136.655204,170.758365 C136.655204,173.100279 135.75816,175.346218 134.161273,177.001951 C132.564736,178.658034 130.399008,179.588354 128.140809,179.588354 C125.88261,179.588354 123.716882,178.658034 122.119995,177.001951 C120.523108,175.346218 119.626063,173.100279 119.626063,170.758365 L119.626063,43.7853602 Z M161.847068,48.1637518 C161.847068,45.8218377 162.744113,43.575898 164.341,41.9201654 C165.937887,40.2640826 168.103615,39.333762 170.361814,39.333762 C172.620013,39.333762 174.785741,40.2640826 176.382277,41.9201654 C177.979164,43.575898 178.876209,45.8218377 178.876209,48.1637518 L178.876209,164.920743 C178.876209,167.262307 177.979164,169.508246 176.382277,171.164329 C174.785741,172.820062 172.620013,173.750382 170.361814,173.750382 C168.103615,173.750382 165.937887,172.820062 164.341,171.164329 C162.744113,169.508246 161.847068,167.262307 161.847068,164.920743 L161.847068,48.1637518 Z M223.982399,0.000704060792 L32.0176011,0.000704060792 C27.834661,-0.0276277346 23.6874485,0.79936286 19.8134477,2.43512994 C15.9390966,4.07054675 12.4143162,6.48251508 9.44016244,9.53267777 C6.46600863,12.5831907 4.10132693,16.2116514 2.48167233,20.2110493 C0.861667456,24.210097 0.0185643801,28.5016213 0,32.8393814 L0,229.866651 C0.0185643801,234.204411 0.861667456,238.495935 2.48167233,242.494983 C4.10132693,246.494381 6.46600863,250.122841 9.44016244,253.173354 C12.4143162,256.223517 15.9390966,258.635485 19.8134477,260.270902 C23.6874485,261.906669 27.834661,262.732609 32.0176011,262.705279 L223.982399,262.705279 C228.159384,262.732609 232.300642,261.909121 236.17044,260.277907 C240.039887,258.647044 243.561865,256.241381 246.534968,253.198924 C249.508071,250.156467 251.874154,246.536413 253.498362,242.545772 C255.12222,238.55478 255.972329,234.271312 256,229.939857 L256,32.8393814 C255.981436,28.5075759 255.140434,24.2223565 253.524983,20.2278624 C251.909531,16.2333682 249.551155,12.60806 246.584707,9.55859785 C243.617909,6.50948597 240.101185,4.09611656 236.23524,2.45614622 C232.369295,0.816175884 228.229789,-0.0178201375 224.052803,0.000704060792" fill="#000000"/>
  </g>
</svg>

<svg width="256" height="263" xmlns="http://www.w3.org/2000/svg" preserveAspectRatio="xMidYMid"><path d="M221.66 144.561c0 2.342-.897 4.588-2.493 6.244-1.597 1.656-3.763 2.586-6.021 2.586s-4.424-.93-6.021-2.586c-1.597-1.656-2.494-3.902-2.494-6.244V65.677c0-2.342.897-4.588 2.494-6.243 1.597-1.656 3.763-2.587 6.02-2.587 2.259 0 4.425.93 6.022 2.587 1.596 1.655 2.493 3.901 2.493 6.243v78.884Zm-2.955 54.657c-1.126 1.168-32.792 28.533-90.846 28.533s-89.508-27.22-90.845-28.387a8.635 8.635 0 0 1-2.043-2.654 8.99 8.99 0 0 1-.533-6.637 8.776 8.776 0 0 1 1.59-2.969c1.47-1.763 3.552-2.852 5.793-3.03a8.317 8.317 0 0 1 6.17 2.082c.493.365 28.78 24.154 79.798 24.154 51.017 0 79.516-23.935 79.798-24.154a8.453 8.453 0 0 1 6.202-2.059c2.247.177 4.339 1.256 5.83 3.007a8.891 8.891 0 0 1 1.995 6.274c-.158 2.282-1.178 4.407-2.839 5.913l-.07-.073ZM33.988 65.678c.127-2.35 1.146-4.551 2.834-6.124 1.688-1.572 3.907-2.388 6.173-2.269a8.38 8.38 0 0 1 5.564 2.6 8.986 8.986 0 0 1 2.458 5.792v78.738c0 2.342-.897 4.588-2.494 6.244-1.596 1.656-3.762 2.586-6.02 2.586-2.259 0-4.424-.93-6.021-2.586-1.597-1.656-2.494-3.902-2.494-6.244V65.677ZM76.7 48.163c.128-2.35 1.146-4.551 2.834-6.124 1.688-1.572 3.908-2.388 6.174-2.268a8.38 8.38 0 0 1 5.564 2.599 8.986 8.986 0 0 1 2.458 5.793V164.92c0 2.341-.898 4.587-2.494 6.243-1.597 1.656-3.763 2.586-6.02 2.586-2.26 0-4.425-.93-6.022-2.586-1.597-1.656-2.494-3.902-2.494-6.243V48.164Zm42.925-4.379c0-2.342.897-4.587 2.494-6.243 1.597-1.656 3.763-2.587 6.02-2.587 2.259 0 4.425.93 6.021 2.587 1.597 1.656 2.494 3.901 2.494 6.243v126.973c0 2.342-.897 4.588-2.494 6.244-1.596 1.656-3.762 2.586-6.02 2.586-2.258 0-4.424-.93-6.021-2.586-1.597-1.656-2.494-3.902-2.494-6.244V43.785Zm42.221 4.379c0-2.342.897-4.588 2.494-6.244 1.597-1.656 3.763-2.586 6.02-2.586 2.259 0 4.425.93 6.021 2.586 1.597 1.656 2.494 3.902 2.494 6.244V164.92c0 2.341-.897 4.587-2.494 6.243-1.596 1.656-3.762 2.586-6.02 2.586-2.258 0-4.424-.93-6.021-2.586-1.597-1.656-2.494-3.902-2.494-6.243V48.164ZM223.982 0H32.018a30.82 30.82 0 0 0-12.205 2.434A31.735 31.735 0 0 0 9.44 9.533 33.07 33.07 0 0 0 2.482 20.21 34.04 34.04 0 0 0 0 32.839v197.028a34.04 34.04 0 0 0 2.482 12.628 33.07 33.07 0 0 0 6.958 10.678 31.735 31.735 0 0 0 10.373 7.098 30.838 30.838 0 0 0 12.205 2.434h191.964a30.84 30.84 0 0 0 12.188-2.427 31.735 31.735 0 0 0 10.365-7.08 33.074 33.074 0 0 0 6.963-10.652A34.043 34.043 0 0 0 256 229.94V32.84a34.044 34.044 0 0 0-2.475-12.612 33.08 33.08 0 0 0-6.94-10.67 31.75 31.75 0 0 0-10.35-7.102A30.828 30.828 0 0 0 224.053.001"/></svg>
